X:29
T:The Gallowglass (in G minor)
T:Nathaniel Gow's Lament for the Death of his Brother
S:Paddy Canny, Clare (fiddle)
Z:Bernie Stocks
D:Home tape of unknown provenance
R:jig
M:6/8
L:1/8
K:Gm
A |: BAG dAc | BGG G2A | BAG def | cAF FGA |
B2G dAc | BGB d2c | BAG ^FGA |1 BGG G2A :|2 BGG G3 |:
g^fg (3ded c | BGG G2A | BAG def | cAF F2g |1
g^fg d2c | BGB dcA | BAG ^FGA | BGG G2g :|2
gdg fdf | ecA BGD | _EGB dAc | BGG G3 |]
